X: 1
T: the Athlone Jig
C: Angus Fitchet (attr)
R: jig
Z: 2016 John Chambers <jc:trillian.mit.edu>
S: PNG image of unknown origin from Steve Wyrick
M: 6/8
L: 1/8
K: D
F |\
"D"A2A "A7"ABc | "D"d2A F2A | "A7"A2G EFG | "D"B2A F3 |\
"D"A2A "A7"ABc | "D"d2A F2D | "A7"CEG B2A | "D"D3 D2 :|
|: A |\
"D"f2d AFA | "(Bm)"f2d AFA | "Em"gfe "(E7)"dcB | "A7"Aed cBc |\
"D"f2d AFA | "(Bm)"f2d AFA | "Em"Bed "A7"cBc | "D"d3 d2 :|
